X:1
T:The Omnibus
L:1/8
M:4/4
I:linebreak $
K:G
V:1 treble 
V:1
|: (3def | gage dgbd | cfac Bdgd | BGdB cAag | (3fgf (3efe defd |$ gage dgbd | cfac Bdgf | %7
 (3efg db caBg | ecAF G2 :: dc | BGFG EGDG |$ B,DGB cBAG | AEAB cBAG | AGFE DCB,A, | G,B,DG BdcB | %15
 cdef gfge |$ dbca Bgfg | ecAF G2 :| %18
